icons/op-view-timeline-16.svg

<svg width="16" height="16" viewBox="0 0 16 16" fill="none" xmlns="http://www.w3.org/2000/svg">
<g clip-path="url(#clip0_35_1751)">
<path d="M0 1.75C0 0.784 0.784 0 1.75 0H14.25C15.216 0 16 0.784 16 1.75V14.25C16 14.7141 15.8156 15.1592 15.4874 15.4874C15.1592 15.8156 14.7141 16 14.25 16H1.75C1.28587 16 0.840752 15.8156 0.512563 15.4874C0.184374 15.1592 0 14.7141 0 14.25V1.75ZM1.75 1.5C1.6837 1.5 1.62011 1.52634 1.57322 1.57322C1.52634 1.62011 1.5 1.6837 1.5 1.75V14.25C1.5 14.388 1.612 14.5 1.75 14.5H14.25C14.3163 14.5 14.3799 14.4737 14.4268 14.4268C14.4737 14.3799 14.5 14.3163 14.5 14.25V1.75C14.5 1.6837 14.4737 1.62011 14.4268 1.57322C14.3799 1.52634 14.3163 1.5 14.25 1.5H1.75Z" fill="#1F2328"/>
<path d="M0.21967 12.2197C0.360322 12.079 0.551088 12 0.75 12H11.25C11.4489 12 11.6397 12.079 11.7803 12.2197C11.921 12.3603 12 12.5511 12 12.75C12 12.9489 11.921 13.1397 11.7803 13.2803C11.6397 13.421 11.4489 13.5 11.25 13.5H0.75C0.551088 13.5 0.360322 13.421 0.21967 13.2803C0.0790175 13.1397 0 12.9489 0 12.75C0 12.5511 0.0790175 12.3603 0.21967 12.2197Z" fill="#1F2328"/>
<path d="M4.21967 6.21967C4.36032 6.07902 4.55109 6 4.75 6H15.25C15.4489 6 15.6397 6.07902 15.7803 6.21967C15.921 6.36032 16 6.55109 16 6.75C16 6.94891 15.921 7.13968 15.7803 7.28033C15.6397 7.42098 15.4489 7.5 15.25 7.5H4.75C4.55109 7.5 4.36032 7.42098 4.21967 7.28033C4.07902 7.13968 4 6.94891 4 6.75C4 6.55109 4.07902 6.36032 4.21967 6.21967Z" fill="#1F2328"/>
<path d="M6.21967 9.21967C6.36032 9.07902 6.55109 9 6.75 9H9.25C9.44891 9 9.63968 9.07902 9.78033 9.21967C9.92098 9.36032 10 9.55109 10 9.75C10 9.94891 9.92098 10.1397 9.78033 10.2803C9.63968 10.421 9.44891 10.5 9.25 10.5H6.75C6.55109 10.5 6.36032 10.421 6.21967 10.2803C6.07902 10.1397 6 9.94891 6 9.75C6 9.55109 6.07902 9.36032 6.21967 9.21967Z" fill="#1F2328"/>
<path d="M0.21967 3.21967C0.360322 3.07902 0.551088 3 0.75 3H6.25C6.44891 3 6.63968 3.07902 6.78033 3.21967C6.92098 3.36032 7 3.55109 7 3.75C7 3.94891 6.92098 4.13968 6.78033 4.28033C6.63968 4.42098 6.44891 4.5 6.25 4.5H0.75C0.551088 4.5 0.360322 4.42098 0.21967 4.28033C0.0790175 4.13968 0 3.94891 0 3.75C0 3.55109 0.0790175 3.36032 0.21967 3.21967Z" fill="#1F2328"/>
</g>
<defs>
<clipPath id="clip0_35_1751">
<rect width="16" height="16" fill="white"/>
</clipPath>
</defs>
</svg>

<svg xmlns="http://www.w3.org/2000/svg" width="16" height="16" viewBox="0 0 16 16"><path d="M0 1.75C0 .784.784 0 1.75 0h12.5C15.216 0 16 .784 16 1.75v12.5c0 .464-.184.909-.513 1.237A1.746 1.746 0 0 1 14.25 16H1.75c-.464 0-.909-.184-1.237-.513A1.746 1.746 0 0 1 0 14.25Zm1.75-.25a.25.25 0 0 0-.25.25v12.5c0 .138.112.25.25.25h12.5a.25.25 0 0 0 .25-.25V1.75a.25.25 0 0 0-.25-.25Z"/><path d="M.22 12.22A.747.747 0 0 1 .75 12h10.5c.199 0 .39.079.53.22a.747.747 0 0 1 0 1.06.747.747 0 0 1-.53.22H.75a.747.747 0 0 1-.53-.22.747.747 0 0 1 0-1.06Zm4-6A.747.747 0 0 1 4.75 6h10.5c.199 0 .39.079.53.22a.747.747 0 0 1 0 1.06.747.747 0 0 1-.53.22H4.75a.747.747 0 0 1-.53-.22.747.747 0 0 1 0-1.06Zm2 3A.747.747 0 0 1 6.75 9h2.5c.199 0 .39.079.53.22a.747.747 0 0 1 0 1.06.747.747 0 0 1-.53.22h-2.5a.747.747 0 0 1-.53-.22.747.747 0 0 1 0-1.06Zm-6-6A.747.747 0 0 1 .75 3h5.5c.199 0 .39.079.53.22a.747.747 0 0 1 0 1.06.747.747 0 0 1-.53.22H.75a.747.747 0 0 1-.53-.22.747.747 0 0 1 0-1.06Z"/></svg>
